!!!OTL: Altdeutsches Kampflied.
!!!OTL-incipit: WIR STEHEN HIER ZUR SCHLACHT BEREIT
!!!ARE: Europa, Mitteleuropa, Deutschland, Rhein
!!!SCT: Z1132
!!!TXL: @@DE
!!!YEM: Copyright 1995, estate of Helmut Schaffrath.
**kern	**text
*ICvox	*
*M3/4	*
*k[f#]	*
*e:	*
!LO:TX:a:t=Vorſänger.	!
!LO:TX:a:t=Vom Rheine.	!
{8eL	Wir
8f#J	.
=1	=1
(8gL	ſte-
8aJ)	.
4b/	.
4a	-hen
=2	=2
(4.b/	hier
8a)	.
4g	ʒur
=3	=3
(4a	Schlacht
4b/)	.
4a	be-
=4	=4
2b}	-reit,
!LO:TX:a:t=Alle.	!
{4g	o
=5	=5
(4a	Mi-
4b/)	.
4a	-cha-
=6	=6
2b/}	-el!
!LO:TX:a:t=Vorſänger.	!
{4b/	Erʒ-
=7	=7
(4b/	-en-
4a)	.
(8b/L	-gel,
8ccJ)	.
=8	=8
(4.dd	hel-
8cc)	.
8bL	-fe
8aJ	.
=9	=9
2b	uns
4a	im
=10	=10
2g}	Streit!
=||	=||
!LO:TX:a:t=Alle.	!
{8bL	Hilf
8gJ	.
=11	=11
(4a	uns
4b/)	.
(8aL	hier
8gJ)	.
=12	=12
4f#	käm-
4e;}	-pfen,
{8bL	die
8gJ	.
=13	=13
(>4a	Fein-
4b/)	.
8aL	-de
8gJ	.
=14	=14
4f#	däm-
4e;}	-pfen,
{8f#L	o
8gJ	.
=15	=15
(>4a	Mi-
4g)	.
4f#	-cha-
=16	=16
2e}	-el!
==	==
!!!Ag: Vaterland und Wehr
!!!ONB: ESAC (Essen Associative Code) Database: ZUCCAL
!!!AMT: simple triple
!!!AIN: vox
!!!EED: Helmut Schaffrath
!!!EEV: 1.0
!!!RDF**kern: >= above
!!!GTL: IV. Vaterland und Wehr.
!!!URL-scan: https://www.digitale-sammlungen.de/de/view/bsb11160573?page=293
!!!ENC: Anna Maria Matuszewska
!!!EEV: 2025/02/04
*-	*-
